static/img/location.svg

<?xml version="1.0" encoding="UTF-8" standalone="no"?>
<!-- Created with Inkscape (http://www.inkscape.org/) -->

<svg
   xmlns:dc="http://purl.org/dc/elements/1.1/"
   xmlns:cc="http://creativecommons.org/ns#"
   xmlns:rdf="http://www.w3.org/1999/02/22-rdf-syntax-ns#"
   xmlns:svg="http://www.w3.org/2000/svg"
   xmlns="http://www.w3.org/2000/svg"
   xmlns:sodipodi="http://sodipodi.sourceforge.net/DTD/sodipodi-0.dtd"
   xmlns:inkscape="http://www.inkscape.org/namespaces/inkscape"
   width="90"
   height="90"
   id="svg3140"
   version="1.1"
   inkscape:version="0.48+devel r12261"
   sodipodi:docname="location.svg">
  <defs
     id="defs3142" />
  <sodipodi:namedview
     id="base"
     pagecolor="#ffffff"
     bordercolor="#666666"
     borderopacity="1.0"
     inkscape:pageopacity="0.0"
     inkscape:pageshadow="2"
     inkscape:zoom="4.0745362"
     inkscape:cx="36.998075"
     inkscape:cy="71.603195"
     inkscape:document-units="px"
     inkscape:current-layer="layer1"
     showgrid="true"
     inkscape:window-width="1920"
     inkscape:window-height="1029"
     inkscape:window-x="0"
     inkscape:window-y="24"
     inkscape:window-maximized="1"
     fit-margin-top="0"
     fit-margin-left="0"
     fit-margin-right="0"
     fit-margin-bottom="0"
     inkscape:snap-bbox="true"
     inkscape:object-paths="true"
     inkscape:snap-intersection-paths="true"
     inkscape:object-nodes="true"
     inkscape:snap-smooth-nodes="true"
     inkscape:snap-midpoints="true">
    <inkscape:grid
       type="xygrid"
       id="grid3178"
       empspacing="6"
       visible="true"
       enabled="true"
       snapvisiblegridlinesonly="true"
       originx="0px"
       originy="-1.7382813e-05px" />
  </sodipodi:namedview>
  <metadata
     id="metadata3145">
    <rdf:RDF>
      <cc:Work
         rdf:about="">
        <dc:format>image/svg+xml</dc:format>
        <dc:type
           rdf:resource="http://purl.org/dc/dcmitype/StillImage" />
        <dc:title />
      </cc:Work>
    </rdf:RDF>
  </metadata>
  <g
     inkscape:label="Layer 1"
     inkscape:groupmode="layer"
     id="layer1"
     transform="translate(0,-962.36218)">
    <path
       style="color:#000000;fill:#aea79f;fill-opacity:1;fill-rule:nonzero;stroke:none;stroke-width:3;marker:none;visibility:visible;display:inline;overflow:visible;enable-background:accumulate"
       d="M 45 0 C 30.088312 9.4739031e-15 18 12.088312 18 27 C 18 27.561584 18.028705 28.10317 18.0625 28.65625 C 18.075828 28.904467 18.074737 29.153199 18.09375 29.40625 C 18.114049 29.634857 18.161539 29.866817 18.1875 30.09375 C 20.219665 51.854176 41.922228 90 45 90 C 48.077772 90 69.780331 51.854176 71.8125 30.09375 C 71.83413 29.862134 71.889131 29.634086 71.90625 29.40625 C 71.92827 29.158255 71.922231 28.906127 71.9375 28.65625 C 71.967647 28.094801 72 27.535211 72 27 C 72 12.088312 59.911688 -4.7369516e-15 45 0 z M 45 18 C 49.970563 18 54 22.029437 54 27 C 54 31.970563 49.970563 36 45 36 C 40.029437 36 36 31.970563 36 27 C 36 22.029437 40.029437 18 45 18 z "
       transform="translate(0,962.36218)"
       id="path4984" />
    <rect
       style="color:#000000;fill:none;stroke:none;stroke-width:7.5;marker:none;visibility:visible;display:inline;overflow:visible;enable-background:accumulate"
       id="rect4198"
       width="90"
       height="90"
       x="0"
       y="962.36218" />
  </g>
  <g
     inkscape:groupmode="layer"
     id="layer2"
     inkscape:label="Shapes"
     sodipodi:insensitive="true"
     style="display:none">
    <path
       style="color:#000000;fill:#aea79f;fill-opacity:1;fill-rule:nonzero;stroke:none;stroke-width:3;marker:none;visibility:visible;display:inline;overflow:visible;enable-background:accumulate"
       inkscape:transform-center-y="6.7348177"
       d="m 72.000025,27.000021 c 0,21.00001 -23.770828,62.99996 -27.000046,62.99996 -3.229217,0 -26.999993,-41.99995 -26.999993,-62.99996 C 19.614621,23.340381 72.000025,23.000066 72.000025,27.000021 Z"
       id="path4984-5"
       inkscape:connector-curvature="0"
       sodipodi:nodetypes="sscs" />
    <path
       sodipodi:type="arc"
       style="color:#000000;fill:#aea79f;fill-opacity:1;fill-rule:nonzero;stroke:none;stroke-width:6;marker:none;visibility:visible;display:inline;overflow:visible;enable-background:accumulate"
       id="path830-6"
       sodipodi:cx="45"
       sodipodi:cy="21.000017"
       sodipodi:rx="21"
       sodipodi:ry="21"
       d="m 66,21.000017 a 21,21 0 1 1 -42,0 A 21,21 0 1 1 66,21.000017 Z"
       transform="matrix(1.2857143,0,0,1.2857143,-12.857144,-2.0070749e-5)" />
    <path
       transform="matrix(0.42857143,0,0,0.42857143,25.714286,17.99999)"
       d="m 66,21.000017 a 21,21 0 1 1 -42,0 A 21,21 0 1 1 66,21.000017 Z"
       sodipodi:ry="21"
       sodipodi:rx="21"
       sodipodi:cy="21.000017"
       sodipodi:cx="45"
       id="path832-2"
       style="color:#000000;fill:#aea79f;fill-opacity:1;fill-rule:nonzero;stroke:none;stroke-width:6;marker:none;visibility:visible;display:inline;overflow:visible;enable-background:accumulate"
       sodipodi:type="arc" />
  </g>
</svg>

<svg xmlns="http://www.w3.org/2000/svg" width="90" height="90"><g color="#000"><path d="M45 0C30.088 0 18 12.088 18 27c0 .562.03 1.103.063 1.656.013.248.012.497.03.75.02.23.07.46.095.688C20.22 51.854 41.922 90 45 90c3.078 0 24.78-38.146 26.813-59.906.02-.232.076-.46.093-.688.022-.248.016-.5.03-.75.032-.56.064-1.12.064-1.656C72 12.088 59.912 0 45 0zm0 18c4.97 0 9 4.03 9 9s-4.03 9-9 9-9-4.03-9-9 4.03-9 9-9z" fill="#aea79f" stroke-width="3" overflow="visible" enable-background="accumulate"/><path fill="none" stroke-width="7.5" overflow="visible" enable-background="accumulate" d="M0 0h90v90H0z"/></g></svg>
